!!!OTL: Bayue guihua biandikai
!!!ARE: Asia, China,ÿHubei Hongan
!! I, 405
!!!SCT: C2155
!!!YEM: Copyright 1995, estate of Helmut Schaffrath.
**kern
*ICvox
*Ivox
*M4/4
*k[b-e-a-]
*E-:
{4b-
4b-
4ee-
8cc
8b-
=1
8cc
8b-
8ee-
8cc
2b-}
=2
{8.b-
16cc
8ee-
8ee-
8cc
8b-
4g
=3
8b-
8g
8f
8b-
2e-}
=4
{8b-
16b-
16cc
8b-
8g
16f
16g
8e-
4f
=5
8b-
16b-
16cc
8b-
8g
16f
16g
8e-
4f
=6
8.b-
16cc
4ee-
8cc
8b-
4g
=7
8b-
8g
8f
8b-
2e-}
=8
{8b-
16b-
16cc
8b-
8g
16f
16g
8e-
4f
=9
8b-
16b-
16cc
8b-
8g
16f
16g
8e-
4f
=10
8.b-
16cc
4ee-
8cc
8b-
8g
8f
=11
8b-
8g
8f
8b-
2e-}
==
!!!AGN: Xiaodiao, Baduanjin diao
!!!ONB: ESAC (Essen Associative Code) Database: SENGANSU
!!!AMT: simple quadruple
!!!AIN: vox
!!!EED: Helmut Schaffrath
!!!EEV: 1.0
*-
